!! Orlando di Lasso, "Serve boneet fidelis" 2-part polyphony; alla breve;
!! No. 10 from "Examples of Gregorian Chant & Works ...", compiled
!! by Gustave Soderlund, Appleton-Century-Crofts (New York), 1937; pp. 17-18
**kern	**kern
*M4/2	*M4/2
=1	=1
0r	1.d
.	2G
=2	=2
1r	1c
[1G	2.B
.	4c
=3	=3
2G]	2d
2C	1e
1F	.
.	2d
=4	=4
2.E	4c
.	4B
.	2.g
4F	.
2G	.
.	4f
[2A	4e
.	4d
=5	=5
2A]	4c
.	4d
2G	2.e
1F	.
.	4d
.	[2d
=6	=6
1E	4d]
.	8c
.	8B
.	2c
2r	[1d
2d	.
=7	=7
2G	1d]
2G	.
2.B-	2r
.	2G
4A	.
=8	=8
4G	2d
4F	.
2G	2d
1D	2.f
.	4e
=9	=9
2r	4d
.	4c
2D	2d
2F	1A
2D	.
=10	=10
2A	2r
4c	2A
4B-	.
4A	2c
4G	.
2F	2A
=11	=11
0C	2e
.	4g
.	4f
.	4e
.	4d
.	2c
=12	=12
2r	0G
2C	.
2E	.
2C	.
=13	=13
2G	2r
2.A	2c
.	2e
4G	.
2A	2c
=14	=14
1E	2g
.	2.e
2r	.
.	4d
4C	2e
4D	.
=15	=15
4E	1B
4F	.
2G	.
2E	2r
4A	4c
4B	4d
=16	=16
4c	4e
4A	4f
2B	2g
2.c	2e
.	4A
4B	4B
=17	=17
2A	4c
.	4A
2G	2B
2r	2.c
2C	.
.	4B
=18	=18
2c	2A
2B	2G
[1A	2r
.	2c
=19	=19
1A]	2f
.	2e
2r	[1d
2d	.
=20	=20
2G	1d]
2F	.
[1E	2r
.	2G
=21	=21
1E]	2c
.	2B
2r	1A
[2c	.
=22	=22
2c]	1e
2A	.
2r	1c
[2F	.
=23	=23
2F]	1f
2D	.
2r	1d
2G	.
=24	=24
2F	2r
2E	2g
2.A	2f
.	2e
4G	.
=25	=25
4F	2.a
4E	.
2D	.
.	4g
2.B-	4f
.	4e
.	2d
4A	.
=26	=26
2G	2.d
2F#	.
.	4d
2G	1d
2D	.
=27	=27
2C	2r
2BB	2d
1E	2c
.	2B
=28	=28
2r	1e
2c	.
2B	2r
2A	2f
=29	=29
2.G	2e
.	2d
4F	.
4E	2.g
4D	.
[2C	.
.	4f
=30	=30
4C]	4e
4D	4d
4E	2c
4F	.
2G	2.B
[2E	.
.	4c
=31	=31
4E]	2c
4F	.
2F	2.A
4D	.
4E	4G
4F	4A
4G	4B
=32	=32
4A	4c
4F	4d
4G	4e
4A	4f
4B-	4d
4G	4e
4A	[2c
4E	.
=33	=33
2F	4c]
.	4A
2E	4c
.	4B
4c	4A
4B	4G
4A	[2c
4G	.
=34	=34
4F	2c]
4E	.
2.G	2B
.	1A
8F#	.
8E	.
2F#	.
=35	=35
0G;	0G;
==	==
*-	*-
